X:125
T:Light Heart,The. WM.125
M:2/4
L:1/16
Q:1/4=100
S:Wm.Mittell’s MS, New Romney,Kent,1799
R:.Country Dance
O:England
A:Kent
Z:vmp.Chris Partington
K:C
c2Gc e2ce|g2eg c’2g2|a2f2d2B2|cBcd c2G2|!
c2Gc e2ce|g2eg c’2g2|d2g2 bag^f|g2g2g4:|!
|:g2ce g2eg|f2f2 f2df|e2ag fedc|BcdB F2D2|!
F2a2 D2f2|efge c2G2|c2d2 edcB|c2c2c4:|

